tools/download-figma-icons/icons/solid/co2-footprint.svg

<svg width="24" height="24" viewBox="0 0 24 24" fill="none" xmlns="http://www.w3.org/2000/svg">
<path fill-rule="evenodd" clip-rule="evenodd" d="M10.5555 3.98242C11.2882 3.98242 11.7765 3.60443 12.0367 3.33218C12.2264 3.49718 12.4469 3.59543 12.6922 3.59543C13.4864 3.59543 13.9732 3.35243 14.2274 3.17319C14.3947 3.37043 14.6144 3.50993 14.8859 3.57668C15.2129 3.65543 15.4859 3.68618 15.7146 3.68618C16.0956 3.68618 16.3521 3.59918 16.5201 3.50018H16.5246C16.6746 3.71767 16.8846 3.87517 17.1096 3.95767C17.3728 4.05517 17.6128 4.10017 17.8228 4.10017C18.7003 4.10017 19.1511 3.35768 19.4285 2.74269C19.5485 2.4727 19.6918 1.87271 19.4443 1.31697C19.2711 0.927731 18.9486 0.642737 18.4986 0.49949C18.0336 0.341993 17.6128 0.357743 17.2528 0.545239C17.1996 0.575238 17.1471 0.605238 17.0953 0.642737C17.0953 0.642737 17.0946 0.642737 17.0946 0.643487C16.8434 0.435741 16.2366 0.00824983 15.4934 0.00449991H15.4844C15.0246 0.00449991 14.6766 0.206996 14.4202 0.48224C14.2019 0.312744 13.6919 0 12.9022 0H12.8812C12.3877 0.00449991 11.8935 0.285744 11.634 0.815234C11.421 0.812234 10.962 0.809984 10.5315 0.827983C10.0065 0.872982 9.591 1.06948 9.32926 1.39497C9.15601 1.61172 8.96551 1.99721 9.04576 2.60245C9.15976 3.45443 9.73725 3.98242 10.5555 3.98242ZM21.8379 2.62233C22.3254 2.55483 22.8211 2.75058 23.3536 3.21482C23.7586 3.56806 23.9918 4.0548 23.9986 4.58804C24.0143 5.21053 23.7211 5.84801 23.2036 6.343L23.1159 6.42339C22.867 6.65205 22.5887 6.90773 22.2804 7.11549C21.9354 7.34798 21.5529 7.52048 21.1479 7.52048C20.7796 7.52048 20.3972 7.37798 19.9989 7.03299C19.2714 6.388 19.3689 5.18803 20.2539 3.8898C20.6514 3.31306 21.1479 2.71233 21.8379 2.62233ZM9.24509 5.23225C11.279 4.10052 14.0412 4.45227 15.782 5.0905C16.8994 5.50299 17.8234 6.16298 18.4684 6.99546C19.1066 7.8212 19.4816 8.81043 19.5116 9.87616C19.5641 11.7954 18.4684 13.4761 16.6594 14.2486C14.2662 15.2685 13.0655 16.6193 13.0798 18.2467C13.103 19.9342 12.3598 22.2599 10.6866 23.3774C10.3566 23.5949 9.93583 23.8049 9.42509 23.9099C9.52258 23.6849 9.64258 23.3849 9.75583 23.0249C9.84583 22.7249 9.93583 22.3867 9.99582 22.0192C10.0933 21.4724 10.1391 20.8499 10.0791 20.1817C10.7166 19.2817 11.339 17.9467 11.2415 16.2143C11.1816 15.2985 10.8816 14.2336 10.0033 13.2436C9.53083 12.7111 8.8926 12.2004 8.03761 11.7436C7.80437 11.6236 7.55687 11.5036 7.29438 11.3904C7.06188 11.2861 6.81439 11.1886 6.55114 11.0986C6.58864 10.4311 6.67189 9.59866 6.89614 8.54118C7.21188 7.03296 8.00762 5.91549 9.24509 5.23225ZM5.44057 19.4917C5.64306 19.5074 5.84631 19.4992 6.0263 19.4692C6.3188 19.4392 6.57379 19.3642 6.76879 19.2742C6.64129 18.9667 6.4688 18.6592 6.2363 18.3367C6.16805 18.2392 6.0938 18.1417 6.01056 18.0367C5.99468 18.0208 5.98291 18.0049 5.96919 17.9864C5.96346 17.9787 5.9574 17.9705 5.95056 17.9617C5.86056 17.8567 5.76306 17.7517 5.65881 17.6467C5.48557 17.4592 5.28307 17.2717 5.05807 17.0917C4.77308 16.8517 4.44984 16.611 4.08984 16.3792C3.74485 16.1542 3.64735 15.6967 3.87235 15.3442C3.95485 15.2242 4.05984 15.1342 4.18734 15.081H4.19559C4.41309 14.9685 4.68308 14.9842 4.90808 15.1185C5.10307 15.246 5.29132 15.3742 5.47132 15.5092C5.51579 15.5261 5.56533 15.5472 5.60916 15.5659C5.62372 15.5721 5.63766 15.5781 5.65056 15.5835C5.64808 15.5887 5.64559 15.5938 5.64314 15.5988C5.63818 15.6088 5.63333 15.6187 5.62881 15.6292C5.84631 15.7867 6.04805 15.9517 6.2363 16.116C6.42379 16.2742 6.58878 16.4392 6.74627 16.5967L6.74629 16.5967C6.75754 16.608 6.76898 16.6211 6.78041 16.6342C6.79185 16.6473 6.80329 16.6605 6.81454 16.6717C7.01628 16.8817 7.19703 17.0917 7.35453 17.3017C7.54952 17.5567 7.72202 17.8117 7.86452 18.0667C7.98451 17.8492 8.08951 17.6017 8.14951 17.3242C8.22526 17.0467 8.26201 16.7317 8.23951 16.3935C8.20951 15.8685 7.95452 15.426 7.56452 15.0585C7.39128 14.8867 7.18953 14.736 6.96379 14.5935C6.76129 14.4585 6.53629 14.3385 6.3038 14.2343C5.75631 13.971 5.14807 13.776 4.57733 13.626C3.81985 13.431 2.59662 13.056 1.5234 12.5085C1.4634 13.5585 1.5234 15.2385 2.20588 16.9717C2.79237 18.4717 3.76735 19.0792 4.54058 19.3342C4.57175 19.3419 4.60089 19.3518 4.63011 19.3616C4.65715 19.3707 4.68425 19.3798 4.71308 19.3874C4.90808 19.4392 5.09557 19.4692 5.27557 19.4849C5.33557 19.4917 5.38807 19.4917 5.44057 19.4917ZM8.51026 19.7467C8.54851 19.9402 8.57401 20.1314 8.58901 20.3197C8.60176 20.4652 8.60026 20.6062 8.59876 20.7464C8.59842 20.7595 8.59903 20.7732 8.59964 20.7868C8.60035 20.8028 8.60107 20.8188 8.60026 20.8342V20.9399C8.60026 21.0074 8.60026 21.0749 8.59276 21.1349C8.57701 21.3366 8.55526 21.5324 8.52526 21.7199C8.52526 21.7716 8.51701 21.8174 8.50276 21.8691C8.47276 22.0349 8.43527 22.1924 8.39702 22.3424C8.38952 22.3941 8.37527 22.4399 8.35952 22.4849C8.34761 22.535 8.32994 22.5799 8.31088 22.6283C8.30714 22.6379 8.30334 22.6475 8.29952 22.6574C8.28527 22.7174 8.26952 22.7691 8.24777 22.8224C8.21777 22.9274 8.17952 23.0166 8.14202 23.0999C8.13565 23.1353 8.12125 23.164 8.10703 23.1923L8.10452 23.1974H8.09777C7.98452 23.4824 7.88703 23.6398 7.87953 23.6473C7.81953 23.7448 7.73703 23.8273 7.64703 23.8798C7.64703 23.8832 7.64703 23.8851 7.64633 23.8854C7.64549 23.8858 7.64363 23.8839 7.63953 23.8798C7.63453 23.8898 7.62953 23.8932 7.62453 23.8965C7.62203 23.8982 7.61953 23.8998 7.61703 23.9023C7.50453 23.9698 7.37704 23.9998 7.24954 23.9998C7.10629 23.9998 6.97204 23.9623 6.85205 23.8873C6.8495 23.8848 6.84686 23.8831 6.84419 23.8814C6.83902 23.8781 6.83375 23.8747 6.8288 23.8648C6.7763 23.8423 6.7388 23.8048 6.7013 23.7598C6.6113 23.6773 6.5588 23.5791 6.5213 23.4674V23.4449C6.52594 23.4402 6.52484 23.4384 6.52333 23.436C6.5224 23.4345 6.5213 23.4327 6.5213 23.4299C6.5063 23.3849 6.4988 23.3324 6.4988 23.2799C6.4988 23.2424 6.4988 23.2124 6.5063 23.1824C6.4988 23.1441 6.5063 23.1074 6.5213 23.0699C6.5363 23.0024 6.5588 22.9424 6.5963 22.8824C6.5963 22.8749 6.5963 22.8674 6.60455 22.8599C6.6073 22.8538 6.61276 22.844 6.6203 22.8304C6.63131 22.8107 6.64674 22.783 6.66455 22.7474C6.66455 22.7324 6.6713 22.7174 6.6788 22.7024H6.6863C6.69857 22.6686 6.71335 22.6311 6.7296 22.5899C6.7531 22.5302 6.7797 22.4627 6.8063 22.3874C6.85205 22.2749 6.8963 22.1324 6.94205 21.9824C7.02379 21.6516 7.09954 21.2624 7.10629 20.8274C7.10629 20.8042 7.10629 20.7742 7.09954 20.7524C6.8063 20.8642 6.4913 20.9317 6.15381 20.9692C5.97382 20.9917 5.79307 20.9999 5.61307 20.9999H5.59057C5.52307 20.9999 5.44808 20.9999 5.38058 20.9916C5.11808 20.9849 4.85484 20.9542 4.59309 20.8942C4.5031 20.8799 4.4131 20.8574 4.3231 20.8342C2.73163 20.4067 1.47841 19.2299 0.810921 17.5192C-0.480553 14.241 0.150184 11.2186 0.180184 11.0911C0.232683 10.8436 0.413429 10.6336 0.652674 10.5436C0.900919 10.4611 1.16341 10.4986 1.37341 10.6561C2.09414 11.2111 3.39987 11.7661 4.96059 12.1786C5.56057 12.3361 6.08631 12.5161 6.5513 12.7036C6.82205 12.8161 7.06954 12.9361 7.30204 13.0561C7.57203 13.1993 7.81203 13.3486 8.02952 13.4986C9.29775 14.406 9.68849 15.4493 9.74099 16.3035C9.78599 17.0017 9.66599 17.6242 9.47099 18.1492C9.21525 18.8467 8.83276 19.3792 8.51026 19.7467Z" fill="black"/>
</svg>

<svg width="24" height="24" viewBox="0 0 24 24" fill="none" xmlns="http://www.w3.org/2000/svg"><path fill-rule="evenodd" clip-rule="evenodd" d="M10.556 3.982c.732 0 1.22-.378 1.48-.65a.99.99 0 0 0 .656.263c.794 0 1.281-.243 1.535-.422.168.197.387.337.659.404.327.078.6.11.829.11.38 0 .637-.088.805-.187h.005c.15.218.36.375.585.458.263.097.503.142.713.142.877 0 1.328-.742 1.605-1.357.12-.27.264-.87.016-1.426-.173-.39-.495-.674-.945-.818-.465-.157-.886-.141-1.246.046-.053.03-.106.06-.158.098-.252-.207-.858-.635-1.602-.639h-.009c-.46 0-.807.203-1.064.478C14.202.312 13.692 0 12.902 0h-.02c-.494.004-.989.286-1.248.815a21.447 21.447 0 0 0-1.103.013c-.524.045-.94.241-1.202.567-.173.217-.363.602-.283 1.207.114.852.691 1.38 1.51 1.38Zm11.282-1.36c.487-.067.983.129 1.516.593.405.353.638.84.645 1.373.015.623-.278 1.26-.795 1.755l-.088.08c-.249.229-.527.485-.836.692-.345.233-.727.405-1.132.405-.368 0-.75-.142-1.15-.487-.727-.645-.63-1.845.256-3.143.397-.577.894-1.178 1.584-1.268ZM9.245 5.232c2.034-1.131 4.796-.78 6.537-.142 1.117.413 2.041 1.073 2.686 1.905a4.91 4.91 0 0 1 1.044 2.881c.052 1.92-1.044 3.6-2.853 4.373-2.393 1.02-3.593 2.37-3.58 3.998.024 1.687-.72 4.013-2.392 5.13a3.61 3.61 0 0 1-1.262.533 7.938 7.938 0 0 0 .57-1.89c.098-.548.144-1.17.084-1.838.638-.9 1.26-2.235 1.162-3.968a4.85 4.85 0 0 0-1.238-2.97c-.472-.533-1.11-1.044-1.965-1.5a12.07 12.07 0 0 0-1.487-.645c.038-.668.12-1.5.345-2.558.316-1.508 1.112-2.626 2.35-3.309Zm-3.804 14.26a2.5 2.5 0 0 0 .585-.023c.293-.03.548-.105.743-.195a4.625 4.625 0 0 0-.533-.937 6.287 6.287 0 0 0-.225-.3c-.016-.016-.028-.032-.042-.05l-.018-.025a5.878 5.878 0 0 0-.292-.315 5.49 5.49 0 0 0-.6-.555 9.432 9.432 0 0 0-.97-.713.748.748 0 0 1-.217-1.035.716.716 0 0 1 .315-.263h.009a.735.735 0 0 1 .712.037c.195.128.383.256.563.391.045.017.094.038.138.057l.042.018a1.599 1.599 0 0 1-.022.045c.217.158.42.323.607.487.188.158.353.323.51.48a.794.794 0 0 1 .034.038l.035.038c.201.21.382.42.54.63.195.255.367.51.51.765.12-.218.225-.465.285-.743.075-.277.112-.592.09-.93-.03-.525-.285-.968-.675-1.335a3.487 3.487 0 0 0-.601-.465 4.554 4.554 0 0 0-.66-.36 9.803 9.803 0 0 0-1.727-.608c-.757-.195-1.98-.57-3.054-1.117-.06 1.05 0 2.73.683 4.463.586 1.5 1.561 2.107 2.335 2.362.03.008.06.018.09.028a3.295 3.295 0 0 0 .645.123c.06.007.112.007.165.007Zm3.07.255c.038.193.063.384.078.573a4.301 4.301 0 0 1 .01.467c.001.016.002.032.001.047v.106c0 .067 0 .135-.007.195a7.325 7.325 0 0 1-.068.585.541.541 0 0 1-.022.15c-.03.165-.068.322-.106.472a.749.749 0 0 1-.037.143.933.933 0 0 1-.05.143l-.01.03a1.09 1.09 0 0 1-.052.164c-.03.105-.068.195-.106.278a.332.332 0 0 1-.035.092l-.002.005h-.007a2.598 2.598 0 0 1-.218.45.69.69 0 0 1-.233.233v.005c-.002 0-.003-.001-.007-.005a.037.037 0 0 1-.015.017l-.008.005A.71.71 0 0 1 7.25 24a.74.74 0 0 1-.406-.119.037.037 0 0 1-.015-.016.343.343 0 0 1-.128-.105.666.666 0 0 1-.18-.293v-.022c.005-.005.004-.007.002-.009a.196.196 0 0 1-.002-.366.579.579 0 0 1 .075-.188c0-.007 0-.015.009-.022l.015-.03c.011-.02.027-.047.045-.083 0-.015.006-.03.014-.045h.007l.044-.112c.023-.06.05-.127.076-.203.046-.112.09-.255.136-.405.082-.33.158-.72.164-1.155 0-.023 0-.053-.006-.075a3.81 3.81 0 0 1-.946.217c-.18.023-.36.03-.54.03H5.59c-.068 0-.143 0-.21-.007a3.97 3.97 0 0 1-.788-.098 2.937 2.937 0 0 1-.27-.06c-1.59-.427-2.844-1.604-3.511-3.314-1.292-3.278-.66-6.3-.63-6.428a.76.76 0 0 1 .472-.547.775.775 0 0 1 .72.112c.721.555 2.027 1.11 3.588 1.523a13 13 0 0 1 1.59.525c.271.112.519.232.751.352.27.143.51.293.728.443 1.268.907 1.658 1.95 1.711 2.804a4.454 4.454 0 0 1-.27 1.846 5.089 5.089 0 0 1-.96 1.598Z" fill="currentColor"/></svg>
